X: 30854
T: Out On The Beach
R: waltz
M: 3/4
K: Dmajor
A2|A4 de|f4 ed|e4 B2|d4 cB|A4 de|f4 ed|e6-|e4 A2|
A4 de|f4 ed|e4 B2|d4 cB|A4 f2|A4 e2|d6-|d4||
a2|a4 f2|a4 f2|a6|f4 b2|b4 g2|d4 e2|a6-|a4 A2|
A4 de|f4 ed|e4 B2|d4 cB|A4 f2|A4 e2|d6-|d4||

